demo/img/redNumbers/2.svg

<?xml version="1.0" encoding="UTF-8"?>
<svg width="141px" height="159px" viewBox="0 0 141 159" version="1.1" xmlns="http://www.w3.org/2000/svg" xmlns:xlink="http://www.w3.org/1999/xlink">
    <!-- Generator: Sketch 52.6 (67491) - http://www.bohemiancoding.com/sketch -->
    <title>2</title>
    <desc>Created with Sketch.</desc>
    <g id="-" stroke="none" stroke-width="1" fill="none" fill-rule="evenodd" fill-opacity="0">
        <path d="M140.33475,140.178079 L140.33475,157.931079 L0.47575,157.931079 L0.47575,146.889579 C0.47575,143.858564 0.583998918,141.585337 0.8005,140.069829 C1.01700108,138.554322 1.55824567,137.002754 2.42425,135.415079 C8.91928248,122.425014 24.2184628,110.012472 48.32225,98.1770794 L85.99325,79.7745794 C93.4986209,76.021894 99.2358135,72.9909243 103.205,70.6815794 C107.174187,68.3722345 110.529903,65.4134308 113.27225,61.8050794 C116.014597,58.196728 117.38575,53.7946054 117.38575,48.5985794 L117.38575,45.3510794 C117.38575,36.9797042 113.524872,30.2682713 105.803,25.2165794 C98.0811281,20.1648875 87.2201533,17.6390794 73.21975,17.6390794 C57.487338,17.6390794 45.8325379,20.6339661 38.255,26.6238294 C30.6774621,32.6136927 26.2392565,40.2271999 24.94025,49.4645794 L2.64075,49.4645794 C3.21808622,40.3715339 6.32122185,32.1085332 11.95025,24.6753294 C17.5792781,17.2421256 25.625781,11.3245181 36.09,6.9223294 C46.554219,2.52014072 59.0028445,0.319079395 73.43625,0.319079395 C87.7253214,0.319079395 99.8131172,2.37580883 109.7,6.4893294 C119.586883,10.60285 127.019975,16.1957107 131.9995,23.2680794 C136.979025,30.3404481 139.46875,38.2065361 139.46875,46.8665794 C139.46875,55.5266227 137.412021,62.8514661 133.2985,68.8413294 C129.184979,74.8311927 124.313778,79.594145 118.68475,83.1303294 C113.055722,86.6665137 105.189634,90.8882215 95.08625,95.7955794 L57.41525,114.198079 C40.3838315,122.569455 28.5486165,131.229368 21.90925,140.178079 L140.33475,140.178079 Z" id="2" stroke="#870000" stroke-width="0.3" fill="#171717"></path>
    </g>
</svg>

<?xml version="1.0" encoding="utf-8"?>
<!-- Generator: Adobe Illustrator 16.0.0, SVG Export Plug-In . SVG Version: 6.00 Build 0)  -->
<!DOCTYPE svg PUBLIC "-//W3C//DTD SVG 1.1//EN" "http://www.w3.org/Graphics/SVG/1.1/DTD/svg11.dtd">
<svg version="1.1" id="Capa_1" xmlns="http://www.w3.org/2000/svg" xmlns:xlink="http://www.w3.org/1999/xlink" x="0px" y="0px"
	 width="141px" height="159px" viewBox="0 0 141 159" enable-background="new 0 0 141 159" xml:space="preserve">
<title>2</title>
<desc>Created with Sketch.</desc>
<g id="_x2D_">
	<path id="_x32_" fill="none" stroke="#1E7498" stroke-width="0.3" d="M140.335,140.178v17.754H0.476V146.89
		c0-3.031,0.108-5.304,0.325-6.819c0.217-1.516,0.758-3.067,1.624-4.655c6.495-12.99,21.794-25.402,45.898-37.237l37.671-18.403
		c7.505-3.752,13.243-6.784,17.212-9.093c3.969-2.31,7.324-5.268,10.067-8.876c2.742-3.608,4.113-8.011,4.113-13.207v-3.248
		c0-8.372-3.86-15.083-11.583-20.134c-7.722-5.052-18.582-7.578-32.583-7.578c-15.732,0-27.387,2.995-34.965,8.985
		c-7.578,5.99-12.016,13.603-13.314,22.84h-22.3c0.578-9.093,3.681-17.356,9.31-24.789S25.626,11.325,36.09,6.922
		C46.554,2.52,59.003,0.319,73.436,0.319c14.289,0,26.377,2.057,36.265,6.17c9.887,4.114,17.319,9.707,22.3,16.779
		c4.979,7.072,7.469,14.938,7.469,23.599c0,8.66-2.057,15.985-6.17,21.975s-8.984,10.753-14.614,14.29
		c-5.629,3.535-13.495,7.758-23.599,12.664l-37.671,18.403c-17.031,8.371-28.866,17.031-35.506,25.979H140.335z"/>
</g>
</svg>
